austria/municipalities/41821.svg

<?xml version="1.0" encoding="UTF-8"?>
<!DOCTYPE svg PUBLIC "-//W3C//DTD SVG 1.1//EN" "http://www.w3.org/Graphics/SVG/1.1/DTD/svg11.dtd">
<svg xmlns="http://www.w3.org/2000/svg" version="1.1" width="166px" height="207px" style="shape-rendering:geometricPrecision; text-rendering:geometricPrecision; image-rendering:optimizeQuality; fill-rule:evenodd; clip-rule:evenodd" xmlns:xlink="http://www.w3.org/1999/xlink">
<g><path style="opacity:1" fill="#000000" d="M -0.5,-0.5 C 54.8333,-0.5 110.167,-0.5 165.5,-0.5C 165.5,44.1667 165.5,88.8333 165.5,133.5C 157.503,172.498 134.169,196.831 95.5,206.5C 86.8333,206.5 78.1667,206.5 69.5,206.5C 29.593,196.928 6.25968,171.928 -0.5,131.5C -0.5,87.5 -0.5,43.5 -0.5,-0.5 Z"/></g>
<g><path style="opacity:1" fill="#00612a" d="M 3.5,3.5 C 29.5,3.5 55.5,3.5 81.5,3.5C 81.5,34.1667 81.5,64.8333 81.5,95.5C 69.1667,95.5 56.8333,95.5 44.5,95.5C 44.5,78.1667 44.5,60.8333 44.5,43.5C 48.1667,43.5 51.8333,43.5 55.5,43.5C 55.329,48.4943 57.6624,50.3276 62.5,49C 64.9137,46.0041 67.747,43.5041 71,41.5C 71.7562,39.1913 71.2562,37.1913 69.5,35.5C 66.7181,34.2159 64.3847,32.3825 62.5,30C 58.1556,28.5243 55.8222,30.0243 55.5,34.5C 51.8333,34.5 48.1667,34.5 44.5,34.5C 44.5,31.8333 44.5,29.1667 44.5,26.5C 48.8026,26.0369 50.6359,23.7035 50,19.5C 47.0372,17.4714 44.8705,14.8047 43.5,11.5C 41.0878,10.1823 38.7544,10.349 36.5,12C 35.1671,14.5814 33.3337,16.7481 31,18.5C 29.5789,22.4302 30.7455,25.0968 34.5,26.5C 35.48,29.0865 35.8134,31.7531 35.5,34.5C 32.1016,34.8204 28.7683,34.487 25.5,33.5C 23.9235,29.9449 21.2568,28.7782 17.5,30C 15.5075,32.7472 13.0075,34.9138 10,36.5C 8.17815,41.8293 10.0115,44.496 15.5,44.5C 15.418,47.5849 16.918,49.2515 20,49.5C 23.4095,48.9245 25.2429,46.9245 25.5,43.5C 28.8333,43.5 32.1667,43.5 35.5,43.5C 35.5,60.8333 35.5,78.1667 35.5,95.5C 24.8333,95.5 14.1667,95.5 3.5,95.5C 3.5,64.8333 3.5,34.1667 3.5,3.5 Z"/></g>
<g><path style="opacity:1" fill="#fefffe" d="M 83.5,3.5 C 96.5,3.5 109.5,3.5 122.5,3.5C 122.5,10.5 122.5,17.5 122.5,24.5C 109.5,24.5 96.5,24.5 83.5,24.5C 83.5,17.5 83.5,10.5 83.5,3.5 Z"/></g>
<g><path style="opacity:1" fill="#fefffe" d="M 124.5,3.5 C 136.833,3.5 149.167,3.5 161.5,3.5C 161.5,10.5 161.5,17.5 161.5,24.5C 149.167,24.5 136.833,24.5 124.5,24.5C 124.5,17.5 124.5,10.5 124.5,3.5 Z"/></g>
<g><path style="opacity:1" fill="#fea700" d="M 38.5,12.5 C 42.6917,12.4028 44.0251,14.2361 42.5,18C 45.2292,18.0047 47.2292,19.1713 48.5,21.5C 47.3265,24.2789 45.4932,24.9455 43,23.5C 42.501,27.8206 42.3343,32.1539 42.5,36.5C 47.5,36.5 52.5,36.5 57.5,36.5C 56.8307,32.3241 58.3307,30.9907 62,32.5C 62.2189,33.938 62.7189,35.2713 63.5,36.5C 66.248,35.5462 68.248,36.5462 69.5,39.5C 67.9292,42.0934 65.5959,43.0934 62.5,42.5C 63.1693,46.6759 61.6693,48.0093 58,46.5C 57.5065,44.8659 57.3398,43.1992 57.5,41.5C 52.5,41.5 47.5,41.5 42.5,41.5C 42.5,59.5 42.5,77.5 42.5,95.5C 40.8333,95.5 39.1667,95.5 37.5,95.5C 37.5,77.5 37.5,59.5 37.5,41.5C 32.456,41.1725 27.456,41.5059 22.5,42.5C 23.8002,45.0712 22.9669,46.7379 20,47.5C 17.8434,46.615 17.0101,44.9484 17.5,42.5C 12.3327,43.5081 10.666,41.6748 12.5,37C 13.8544,35.7063 15.1877,35.5396 16.5,36.5C 17.0889,31.4797 19.2555,30.4797 23,33.5C 23.6172,34.4491 23.4506,35.2825 22.5,36C 27.4889,36.4993 32.4889,36.6659 37.5,36.5C 37.6657,32.1539 37.499,27.8206 37,23.5C 32.7387,24.7704 31.5721,23.2704 33.5,19C 34.8333,18.6667 36.1667,18.3333 37.5,18C 36.2427,15.9235 36.576,14.0902 38.5,12.5 Z"/></g>
<g><path style="opacity:1" fill="#fefffe" d="M 83.5,26.5 C 89.8333,26.5 96.1667,26.5 102.5,26.5C 102.5,33.8333 102.5,41.1667 102.5,48.5C 96.1667,48.5 89.8333,48.5 83.5,48.5C 83.5,41.1667 83.5,33.8333 83.5,26.5 Z"/></g>
<g><path style="opacity:1" fill="#fefffe" d="M 104.5,26.5 C 116.5,26.5 128.5,26.5 140.5,26.5C 140.5,33.8333 140.5,41.1667 140.5,48.5C 128.5,48.5 116.5,48.5 104.5,48.5C 104.5,41.1667 104.5,33.8333 104.5,26.5 Z"/></g>
<g><path style="opacity:1" fill="#fefffe" d="M 142.5,26.5 C 148.833,26.5 155.167,26.5 161.5,26.5C 161.5,33.8333 161.5,41.1667 161.5,48.5C 155.167,48.5 148.833,48.5 142.5,48.5C 142.5,41.1667 142.5,33.8333 142.5,26.5 Z"/></g>
<g><path style="opacity:1" fill="#fefffe" d="M 83.5,50.5 C 96.5,50.5 109.5,50.5 122.5,50.5C 122.5,57.5 122.5,64.5 122.5,71.5C 109.5,71.5 96.5,71.5 83.5,71.5C 83.5,64.5 83.5,57.5 83.5,50.5 Z"/></g>
<g><path style="opacity:1" fill="#fefffe" d="M 124.5,50.5 C 136.833,50.5 149.167,50.5 161.5,50.5C 161.5,57.5 161.5,64.5 161.5,71.5C 149.167,71.5 136.833,71.5 124.5,71.5C 124.5,64.5 124.5,57.5 124.5,50.5 Z"/></g>
<g><path style="opacity:1" fill="#fefffe" d="M 83.5,73.5 C 89.8333,73.5 96.1667,73.5 102.5,73.5C 102.5,80.8333 102.5,88.1667 102.5,95.5C 96.1667,95.5 89.8333,95.5 83.5,95.5C 83.5,88.1667 83.5,80.8333 83.5,73.5 Z"/></g>
<g><path style="opacity:1" fill="#fefffe" d="M 104.5,73.5 C 116.5,73.5 128.5,73.5 140.5,73.5C 140.5,80.8333 140.5,88.1667 140.5,95.5C 128.5,95.5 116.5,95.5 104.5,95.5C 104.5,88.1667 104.5,80.8333 104.5,73.5 Z"/></g>
<g><path style="opacity:1" fill="#fefffe" d="M 142.5,73.5 C 148.833,73.5 155.167,73.5 161.5,73.5C 161.5,80.8333 161.5,88.1667 161.5,95.5C 155.167,95.5 148.833,95.5 142.5,95.5C 142.5,88.1667 142.5,80.8333 142.5,73.5 Z"/></g>
<g><path style="opacity:1" fill="#fefffe" d="M 3.5,97.5 C 15.5,97.5 27.5,97.5 39.5,97.5C 39.5,104.5 39.5,111.5 39.5,118.5C 27.5,118.5 15.5,118.5 3.5,118.5C 3.5,111.5 3.5,104.5 3.5,97.5 Z"/></g>
<g><path style="opacity:1" fill="#fefffe" d="M 41.5,97.5 C 54.8333,97.5 68.1667,97.5 81.5,97.5C 81.5,104.5 81.5,111.5 81.5,118.5C 68.1667,118.5 54.8333,118.5 41.5,118.5C 41.5,111.5 41.5,104.5 41.5,97.5 Z"/></g>
<g><path style="opacity:1" fill="#00612a" d="M 83.5,97.5 C 109.5,97.5 135.5,97.5 161.5,97.5C 162.124,107.263 161.457,116.763 159.5,126C 156.5,126.667 153.5,126.667 150.5,126C 147.289,124.652 143.956,123.818 140.5,123.5C 134.772,125.355 128.939,126.688 123,127.5C 120.833,127.333 118.667,127.167 116.5,127C 113.141,124.324 109.308,122.824 105,122.5C 98.6047,123.798 92.4381,125.798 86.5,128.5C 85.5581,128.392 84.7247,128.059 84,127.5C 83.5002,117.506 83.3335,107.506 83.5,97.5 Z"/></g>
<g><path style="opacity:1" fill="#fefffe" d="M 3.5,120.5 C 9.16667,120.5 14.8333,120.5 20.5,120.5C 20.5,127.5 20.5,134.5 20.5,141.5C 15.456,141.827 10.456,141.494 5.5,140.5C 3.7305,133.971 3.06383,127.304 3.5,120.5 Z"/></g>
<g><path style="opacity:1" fill="#fefffe" d="M 22.5,120.5 C 34.1667,120.5 45.8333,120.5 57.5,120.5C 57.5,127.5 57.5,134.5 57.5,141.5C 45.8333,141.5 34.1667,141.5 22.5,141.5C 22.5,134.5 22.5,127.5 22.5,120.5 Z"/></g>
<g><path style="opacity:1" fill="#fefffe" d="M 59.5,120.5 C 66.8333,120.5 74.1667,120.5 81.5,120.5C 81.5,127.5 81.5,134.5 81.5,141.5C 74.1667,141.5 66.8333,141.5 59.5,141.5C 59.5,134.5 59.5,127.5 59.5,120.5 Z"/></g>
<g><path style="opacity:1" fill="#fea700" d="M 98.5,125.5 C 105,124.617 111,125.784 116.5,129C 119,129.5 121.5,130 124,130.5C 129.472,129.088 134.805,127.421 140,125.5C 144.701,127.05 149.535,128.05 154.5,128.5C 156.56,128.428 158.56,128.095 160.5,127.5C 161.635,133.983 160.968,140.316 158.5,146.5C 156.667,146.833 154.833,147.167 153,147.5C 147.825,146.898 142.658,146.232 137.5,145.5C 131.761,146.537 126.095,147.87 120.5,149.5C 114.514,147.844 108.514,146.177 102.5,144.5C 96.5241,147.604 90.1908,149.271 83.5,149.5C 83.5,143.167 83.5,136.833 83.5,130.5C 89.2853,130.813 94.2853,129.146 98.5,125.5 Z"/></g>
<g><path style="opacity:1" fill="#fefffe" d="M -0.5,131.5 C 6.25968,171.928 29.593,196.928 69.5,206.5C 46.1667,206.5 22.8333,206.5 -0.5,206.5C -0.5,181.5 -0.5,156.5 -0.5,131.5 Z"/></g>
<g><path style="opacity:1" fill="#fefffe" d="M 165.5,133.5 C 165.5,157.833 165.5,182.167 165.5,206.5C 142.167,206.5 118.833,206.5 95.5,206.5C 134.169,196.831 157.503,172.498 165.5,133.5 Z"/></g>
<g><path style="opacity:1" fill="#fefffe" d="M 5.5,144.5 C 16.6544,143.505 27.9877,143.172 39.5,143.5C 39.5,150.833 39.5,158.167 39.5,165.5C 31.4931,165.666 23.4931,165.5 15.5,165C 10.9102,158.702 7.57686,151.869 5.5,144.5 Z"/></g>
<g><path style="opacity:1" fill="#fefffe" d="M 41.5,143.5 C 54.8333,143.5 68.1667,143.5 81.5,143.5C 81.5,150.833 81.5,158.167 81.5,165.5C 68.1667,165.5 54.8333,165.5 41.5,165.5C 41.5,158.167 41.5,150.833 41.5,143.5 Z"/></g>
<g><path style="opacity:1" fill="#00612a" d="M 99.5,147.5 C 102.187,147.336 104.854,147.503 107.5,148C 111.619,149.947 115.953,151.113 120.5,151.5C 126.5,150.167 132.5,148.833 138.5,147.5C 144.801,148.679 151.135,149.679 157.5,150.5C 147.691,175.477 130.025,191.977 104.5,200C 97.6391,201.988 90.6391,202.822 83.5,202.5C 83.5,185.833 83.5,169.167 83.5,152.5C 89.1576,151.613 94.4909,149.946 99.5,147.5 Z"/></g>
<g><path style="opacity:1" fill="#fefffe" d="M 16.5,168.5 C 29.9898,167.504 43.6565,167.171 57.5,167.5C 57.5,174.833 57.5,182.167 57.5,189.5C 50.825,189.666 44.1583,189.5 37.5,189C 29.306,183.305 22.306,176.472 16.5,168.5 Z"/></g>
<g><path style="opacity:1" fill="#fefffe" d="M 59.5,167.5 C 66.8333,167.5 74.1667,167.5 81.5,167.5C 81.5,174.833 81.5,182.167 81.5,189.5C 74.1667,189.5 66.8333,189.5 59.5,189.5C 59.5,182.167 59.5,174.833 59.5,167.5 Z"/></g>
<g><path style="opacity:1" fill="#fefffe" d="M 42.5,192.5 C 55.3226,191.505 68.3226,191.171 81.5,191.5C 81.5,195.167 81.5,198.833 81.5,202.5C 67.4889,202.748 54.4889,199.414 42.5,192.5 Z"/></g>
</svg>

<svg xmlns="http://www.w3.org/2000/svg" width="166" height="207" style="shape-rendering:geometricPrecision;text-rendering:geometricPrecision;image-rendering:optimizeQuality;fill-rule:evenodd;clip-rule:evenodd"><path style="opacity:1" d="M-.5-.5h166v134c-7.997 38.998-31.331 63.331-70 73h-26c-39.907-9.572-63.24-34.572-70-75V-.5z"/><path style="opacity:1" fill="#00612a" d="M3.5 3.5h78v92h-37v-52h11c-.171 4.994 2.162 6.828 7 5.5a33.218 33.218 0 0 1 8.5-7.5c.756-2.309.256-4.309-1.5-6a18.895 18.895 0 0 1-7-5.5c-4.344-1.476-6.678.024-7 4.5h-11v-8c4.303-.463 6.136-2.797 5.5-7-2.963-2.029-5.13-4.695-6.5-8-2.412-1.318-4.746-1.151-7 .5a18.836 18.836 0 0 1-5.5 6.5c-1.421 3.93-.255 6.597 3.5 8a16.869 16.869 0 0 1 1 8 25.87 25.87 0 0 1-10-1c-1.576-3.555-4.243-4.722-8-3.5a21.58 21.58 0 0 1-7.5 6.5c-1.822 5.33.011 7.996 5.5 8-.082 3.085 1.418 4.752 4.5 5 3.41-.575 5.243-2.575 5.5-6h10v52h-32v-92z"/><path style="opacity:1" fill="#fefffe" d="M83.5 3.5h39v21h-39v-21zM124.5 3.5h37v21h-37v-21z"/><path style="opacity:1" fill="#fea700" d="M38.5 12.5c4.192-.097 5.525 1.736 4 5.5 2.73.005 4.73 1.171 6 3.5-1.173 2.779-3.007 3.445-5.5 2a84.938 84.938 0 0 0-.5 13h15c-.67-4.176.83-5.51 4.5-4a10.253 10.253 0 0 0 1.5 4c2.748-.954 4.748.046 6 3-1.57 2.593-3.904 3.593-7 3 .67 4.176-.83 5.51-4.5 4-.493-1.634-.66-3.3-.5-5h-15v54h-5v-54a57.124 57.124 0 0 0-15 1c1.3 2.571.467 4.238-2.5 5-2.157-.885-2.99-2.552-2.5-5-5.167 1.008-6.834-.825-5-5.5 1.354-1.294 2.688-1.46 4-.5.589-5.02 2.756-6.02 6.5-3 .617.95.45 1.782-.5 2.5 4.989.5 9.989.666 15 .5a84.938 84.938 0 0 0-.5-13c-4.261 1.27-5.428-.23-3.5-4.5l4-1c-1.257-2.076-.924-3.91 1-5.5z"/><path style="opacity:1" fill="#fefffe" d="M83.5 26.5h19v22h-19v-22zM104.5 26.5h36v22h-36v-22zM142.5 26.5h19v22h-19v-22zM83.5 50.5h39v21h-39v-21zM124.5 50.5h37v21h-37v-21zM83.5 73.5h19v22h-19v-22zM104.5 73.5h36v22h-36v-22zM142.5 73.5h19v22h-19v-22zM3.5 97.5h36v21h-36v-21zM41.5 97.5h40v21h-40v-21z"/><path style="opacity:1" fill="#00612a" d="M83.5 97.5h78c.624 9.763-.043 19.263-2 28.5-3 .667-6 .667-9 0a33.652 33.652 0 0 0-10-2.5 101.174 101.174 0 0 1-17.5 4l-6.5-.5c-3.359-2.676-7.192-4.176-11.5-4.5a85.666 85.666 0 0 0-18.5 6 4.932 4.932 0 0 1-2.5-1c-.5-9.994-.666-19.994-.5-30z"/><path style="opacity:1" fill="#fefffe" d="M3.5 120.5h17v21a57.15 57.15 0 0 1-15-1 61.02 61.02 0 0 1-2-20zM22.5 120.5h35v21h-35v-21zM59.5 120.5h22v21h-22v-21z"/><path style="opacity:1" fill="#fea700" d="M98.5 125.5c6.5-.883 12.5.284 18 3.5l7.5 1.5a164.877 164.877 0 0 0 16-5 64.849 64.849 0 0 0 14.5 3c2.06-.072 4.06-.405 6-1 1.135 6.483.468 12.816-2 19l-5.5 1a621.02 621.02 0 0 1-15.5-2 166.722 166.722 0 0 0-17 4 9131.44 9131.44 0 0 1-18-5c-5.976 3.104-12.31 4.771-19 5v-19c5.785.313 10.785-1.354 15-5z"/><path style="opacity:1" fill="#fefffe" d="M-.5 131.5c6.76 40.428 30.093 65.428 70 75h-70v-75zM165.5 133.5v73h-70c38.669-9.669 62.003-34.002 70-73z"/><path style="opacity:1" fill="#fefffe" d="M5.5 144.5c11.154-.995 22.488-1.328 34-1v22c-8.007.166-16.007 0-24-.5-4.59-6.298-7.923-13.131-10-20.5zM41.5 143.5h40v22h-40v-22z"/><path style="opacity:1" fill="#00612a" d="M99.5 147.5a32.462 32.462 0 0 1 8 .5 37.652 37.652 0 0 0 13 3.5l18-4a339.268 339.268 0 0 0 19 3c-9.809 24.977-27.475 41.477-53 49.5a64.512 64.512 0 0 1-21 2.5v-50c5.658-.887 10.99-2.554 16-5z"/><path style="opacity:1" fill="#fefffe" d="M16.5 168.5a420.768 420.768 0 0 1 41-1v22c-6.675.166-13.342 0-20-.5-8.194-5.695-15.194-12.528-21-20.5zM59.5 167.5h22v22h-22v-22zM42.5 192.5a380.928 380.928 0 0 1 39-1v11c-14.011.248-27.011-3.086-39-10z"/></svg>
